T: Jackson's Babby
M: 6/8
L: 1/8
K: Gmaj
d|BGG DGG|BGG G2d|BGG DGG|ABA F2d|BGG DGG|
BGG G2d|BdB cAG|FDD D2 :||:d|gdc BAG|Bdd d2f|
gdc BAG|FAA A2f|gdc BAG|Bdd d2c|BdB cAG|FDD D2:||
